**kern
*part1
*staff1
*clefC1
*k[b-]
*M3/4
1%0r
=2
1%0r
=3
1%0r
=4
1%0r
=5
8r
8dd
8ee-
8dd
8ccL
16b-y
16ccJ
=6
8dd
8b-y
8cc
8b-y
8aL
16g
16aJ
=7
8b-y
8g
8a
8g
8f#L
16e
16f#yJ
=8
8g
8a
8b-y
8dd
8ccL
16b-y
16ccJ
=9
4dd
4r
4r
=10
*-
